!!!OTL: ACH UMSONST AUF ALLER LAENDER KARTEN
!!!ARE: Europa, Mitteleuropa, Deutschland
!!!SCT: B0281
!!!YEM: Copyright 1995, estate of Helmut Schaffrath.
**kern
*ICvox
*Ivox
*M4/4
*k[f#c#g#]
*A:
{8.cc#
16b
=1
4.a
8a
8a
8a
8g#
8a
=2
4a#
4b
4r}
{8a
8b
=3
4.cc#
8cc#
8b
8a
8g#
8a
=4
2b
4r}
{8e
8e
=5
4dd
8cc#
8b
8ee
8ee
8cc#
8b
=6
8.a
16b
2cc#}
{8cc#
8cc#
=7
8a#
8b
8ee
8dd
4a
4b
=8
2cc#
4r}
{8cc#
8cc#
=9
8.ee
16dd
8cc#
8b
4a
8.cc#
16b
=10
2a
4r}
==
!!!AGN: Stimmungs - Lied, Sehnsucht, Jugend
!!!ONB: ESAC (Essen Associative Code) Database: BOEHME
!!!AMT: simple quadruple
!!!AIN: vox
!!!EED: Helmut Schaffrath
!!!EEV: 1.0
*-
